X: 1620
T: Goodnatured Man, The
R:hornpipe
B:O'Neill's 1620
Z:Transcribed by Michael Hogan
M:2/4
L:1/16
K:G
d2 | g2bg d2gd | BcdB G2AB | cded cBAG | FGEF D2d2 |
g2bg d2gd | BcdB G2AB | cedc BAGF | A2G2 G2 :|
(Bc) | dBdB gdgd | eced aeae | fdfd gdgd | fgaf defd |
g2bg d2gd | BcdB G2AB | cedc BAGF | A2G2 G2 :||


